X: 1
T: The Davy Hornpipe
R: hornpipe
B: RSCDS 24-4
Z: 1997 by John Chambers <jc:trillian.mit.edu>
N: From Kerr (which?)
M: C
L: 1/8
K: G
dc \
| "G"BGBd gdcB | "Am"A2a2 a2ag |  "D7"fgfd cdcA | "G"GFGA B2dc |
| "G"BGBd gdcB | "Am"A2a2 agec | "G"BdBG "D7"AcAF | "G"G2G2 G2 :|
|: Bc \
| "G"dcBA GBdg | "C"e2c2 c2cd | "A7"ed^cB Aaag | "D7"f2d2 d2ef |
| "Em"gabg "D"fgaf | "C"efge "D7"dcBA | "G"BdBG "D7"AcAF | "G"G2G2 G2 :|
%%center Book24/DavyH-JC.abc

%%sep 1 1 500
%%sep 1 1 500

